public/images/hashed/d5f0a4c381d1fd170b87292757a75490.svg

<?xml version="1.0" encoding="UTF-8"?>
<svg width="80px" height="80px" viewBox="0 0 80 80" version="1.1" xmlns="http://www.w3.org/2000/svg" xmlns:xlink="http://www.w3.org/1999/xlink">
    <!-- Generator: Sketch 64 (93537) - https://sketch.com -->
    <title>Icon-Architecture/64/Arch_AWS-Lake-Formation_64</title>
    <desc>Created with Sketch.</desc>
    <defs>
        <linearGradient x1="0%" y1="100%" x2="100%" y2="0%" id="linearGradient-1">
            <stop stop-color="#4D27A8" offset="0%"></stop>
            <stop stop-color="#A166FF" offset="100%"></stop>
        </linearGradient>
    </defs>
    <g id="Icon-Architecture/64/Arch_AWS-Lake-Formation_64" stroke="none" stroke-width="1" fill="none" fill-rule="evenodd">
        <g id="Icon-Architecture-BG/64/Analytics" fill="url(#linearGradient-1)">
            <rect id="Rectangle" x="0" y="0" width="80" height="80"></rect>
        </g>
        <path d="M53.9372096,45.211 C54.7001937,46.101 55.8331701,46.666 57.0941439,46.666 C59.3860961,46.666 61.2500573,44.801 61.2500573,42.509 L59.250099,42.509 C59.250099,43.699 58.2831191,44.666 57.0941439,44.666 C55.9051686,44.666 54.9371888,43.699 54.9371888,42.509 L52.9372305,42.509 C52.9372305,43.699 51.9702506,44.666 50.7812754,44.666 C49.5913002,44.666 48.6243203,43.699 48.6243203,42.509 L46.624362,42.509 C46.624362,43.699 45.6563822,44.666 44.4674069,44.666 C43.2784317,44.666 42.3104519,43.699 42.3104519,42.509 L40.3104935,42.509 C40.3104935,43.699 39.3425137,44.666 38.1545384,44.666 L38.1545384,46.666 C39.4165122,46.666 40.5474886,46.101 41.3104727,45.211 C42.0734568,46.101 43.2064332,46.666 44.4674069,46.666 C45.7293806,46.666 46.8613571,46.101 47.6243412,45.211 C48.3863253,46.101 49.5193017,46.666 50.7812754,46.666 C52.0422491,46.666 53.1742255,46.101 53.9372096,45.211 L53.9372096,45.211 Z M53.0592279,31.605 L51.0592696,31.605 C51.0592696,32.794 50.0912898,33.761 48.9023145,33.761 C47.7133393,33.761 46.7463595,32.794 46.7463595,31.605 L44.7464011,31.605 C44.7464011,32.794 43.7784213,33.761 42.5884461,33.761 C41.4004708,33.761 40.432491,32.794 40.432491,31.605 L38.4325327,31.605 C38.4325327,32.794 37.4645528,33.761 36.2765776,33.761 L36.2765776,35.761 C37.5385513,35.761 38.6695277,35.196 39.4325118,34.306 C40.1954959,35.196 41.3274723,35.761 42.5884461,35.761 C43.8504198,35.761 44.9833962,35.196 45.7463803,34.306 C46.5083644,35.196 47.6403408,35.761 48.9023145,35.761 C50.1642882,35.761 51.2962647,35.196 52.0592488,34.306 C52.8222329,35.196 53.9542093,35.761 55.215183,35.761 L55.215183,33.761 C54.0272078,33.761 53.0592279,32.794 53.0592279,31.605 L53.0592279,31.605 Z M37.2055582,58.923 C38.4665319,58.923 39.5985084,58.358 40.3614925,57.468 C41.1244766,58.358 42.256453,58.923 43.5184267,58.923 C44.7804004,58.923 45.9123768,58.358 46.674361,57.468 C47.4373451,58.358 48.5693215,58.923 49.8312952,58.923 L49.8312952,56.923 C48.64232,56.923 47.6743401,55.956 47.6743401,54.767 L45.6743818,54.767 C45.6743818,55.956 44.7074019,56.923 43.5184267,56.923 C42.3294515,56.923 41.3614716,55.956 41.3614716,54.767 L39.3615133,54.767 C39.3615133,55.956 38.3935335,56.923 37.2055582,56.923 C36.015583,56.923 35.0476032,55.956 35.0476032,54.767 L33.0476448,54.767 C33.0476448,55.956 32.080665,56.923 30.8916898,56.923 L30.8916898,58.923 C32.1536635,58.923 33.2856399,58.358 34.047624,57.468 C34.8106081,58.358 35.9435845,58.923 37.2055582,58.923 L37.2055582,58.923 Z M23.0008541,20 L24.0008333,20 L24.0008333,19 L23.0008541,19 L23.0008541,20 Z M20.9998958,21 L20.9998958,18 C20.9998958,17.447 21.4478865,17 22.000875,17 L25.0008125,17 C25.552801,17 26.0007917,17.447 26.0007917,18 L26.0007917,21 C26.0007917,21.552 25.552801,22 25.0008125,22 L22.000875,22 C21.4478865,22 20.9998958,21.552 20.9998958,21 L20.9998958,21 Z M29.0007292,16 L30.0007083,16 L30.0007083,15 L29.0007292,15 L29.0007292,16 Z M27.0007708,17 L27.0007708,14 C27.0007708,13.447 27.4477615,13 28.00075,13 L31.0006875,13 C31.552676,13 32.0006667,13.447 32.0006667,14 L32.0006667,17 C32.0006667,17.552 31.552676,18 31.0006875,18 L28.00075,18 C27.4477615,18 27.0007708,17.552 27.0007708,17 L27.0007708,17 Z M30.0007083,23 L31.0006875,23 L31.0006875,22 L30.0007083,22 L30.0007083,23 Z M32.0006667,20 C32.5526552,20 33.0006458,20.447 33.0006458,21 L33.0006458,24 C33.0006458,24.552 32.5526552,25 32.0006667,25 L29.0007292,25 C28.4477407,25 28.00075,24.552 28.00075,24 L28.00075,21 C28.00075,20.447 28.4477407,20 29.0007292,20 L32.0006667,20 Z M28.1877461,28.075 C27.1727672,28.075 23.3968459,28.036 20.5459053,27.513 L26.8447741,37.465 C26.9467719,37.625 27.0007708,37.81 27.0007708,38 L27.0007708,39.261 C27.6937564,39.427 28.3487427,39.432 29.0007292,39.274 L29.0007292,38 C29.0007292,37.811 29.053728,37.626 29.1547259,37.465 L35.7165892,27.53 C33.5156351,27.92 30.6156955,28.075 28.1877461,28.075 L28.1877461,28.075 Z M17.0659778,25.567 C17.0589779,25.52 17.0499781,25.431 17.0499781,25.384 C17.0499781,24.769 17.0499781,22.898 26.9807712,22.704 L27.0197704,24.704 C23.821837,24.766 21.4578863,25.071 20.1109144,25.384 C21.5818837,25.727 24.3108269,26.075 28.1877461,26.075 C31.9226683,26.075 34.7126102,25.739 36.2465782,25.383 C35.7345889,25.262 35.0246037,25.13 34.046624,25.011 L34.289619,23.026 C37.8655445,23.462 39.3245141,24.146 39.3245141,25.384 C39.3245141,25.648 39.2295161,26.01 38.8905231,26.356 L31.0006875,38.289 L31.0006875,40 C31.0006875,40.408 30.7516927,40.775 30.3737005,40.927 C29.6047166,41.236 28.8327327,41.39 28.0447491,41.39 C27.2667653,41.39 26.4737818,41.239 25.6547989,40.938 C25.261807,40.793 25.0008125,40.419 25.0008125,40 L25.0008125,38.29 L17.3249724,26.162 C17.3229724,26.159 17.3209725,26.156 17.3189725,26.153 L17.3109727,26.139 L17.1619758,25.903 L17.1769755,25.893 C17.1229766,25.791 17.0829774,25.682 17.0659778,25.567 L17.0659778,25.567 Z M27.0007708,45 L27.0007708,42 L25.0008125,42 L25.0008125,44 L23.0008541,44 C22.6128622,44 22.2588696,44.224 22.094873,44.575 C21.9298765,44.927 21.9838753,45.342 22.2318702,45.64 L27.231766,51.64 C27.421762,51.868 27.7037562,52 28.00075,52 C28.2967438,52 28.5787379,51.868 28.768734,51.64 L33.7686298,45.64 C34.0166247,45.342 34.0706235,44.927 33.905627,44.575 C33.7416304,44.224 33.3876378,44 33.0006458,44 L31.0006875,44 L31.0006875,42 L29.0007292,42 L29.0007292,45 C29.0007292,45.552 29.4477198,46 30.0007083,46 L30.8656903,46 L28.00075,49.438 L25.1348097,46 L26.0007917,46 C26.5527802,46 27.0007708,45.552 27.0007708,45 L27.0007708,45 Z M64,43 C64,56.233 53.2332243,67 39.9995,67 C26.7667757,67 16,56.233 16,43 C16,39.342 16.8019833,35.831 18.3819504,32.564 L20.1829129,33.435 C18.734943,36.428 17.9999583,39.646 17.9999583,43 C17.9999583,55.13 27.8697527,65 39.9995,65 C52.1302473,65 62.0000417,55.13 62.0000417,43 C62.0000417,30.869 52.1302473,21 39.9995,21 C38.7135268,21 37.4265536,21.111 36.1725797,21.331 L35.8275869,19.361 C37.1945584,19.121 38.5985292,19 39.9995,19 C53.2332243,19 64,29.766 64,43 L64,43 Z" id="AWS-Lake-Formation_Icon_64_Squid" fill="#FFFFFF"></path>
    </g>
</svg>

<svg xmlns="http://www.w3.org/2000/svg" width="80" height="80"><defs><linearGradient id="a" x1="0%" x2="100%" y1="100%" y2="0%"><stop offset="0%" stop-color="#4D27A8"/><stop offset="100%" stop-color="#A166FF"/></linearGradient></defs><g fill="none" fill-rule="evenodd"><path fill="url(#a)" d="M0 0h80v80H0z"/><path fill="#FFF" d="M53.937 45.211a4.151 4.151 0 0 0 3.157 1.455 4.161 4.161 0 0 0 4.156-4.157h-2c0 1.19-.967 2.157-2.156 2.157a2.16 2.16 0 0 1-2.157-2.157h-2c0 1.19-.967 2.157-2.156 2.157a2.159 2.159 0 0 1-2.157-2.157h-2a2.16 2.16 0 0 1-2.157 2.157 2.16 2.16 0 0 1-2.157-2.157h-2c0 1.19-.967 2.157-2.155 2.157v2a4.147 4.147 0 0 0 3.155-1.455 4.151 4.151 0 0 0 6.314 0 4.148 4.148 0 0 0 6.313 0Zm-.878-13.606h-2a2.159 2.159 0 0 1-2.157 2.156 2.158 2.158 0 0 1-2.156-2.156h-2a2.16 2.16 0 0 1-2.158 2.156 2.159 2.159 0 0 1-2.156-2.156h-2a2.159 2.159 0 0 1-2.155 2.156v2a4.147 4.147 0 0 0 3.156-1.455 4.149 4.149 0 0 0 6.313 0 4.15 4.15 0 0 0 6.313 0 4.149 4.149 0 0 0 3.156 1.455v-2a2.159 2.159 0 0 1-2.156-2.156ZM37.206 58.923a4.149 4.149 0 0 0 3.155-1.455 4.15 4.15 0 0 0 6.313 0 4.15 4.15 0 0 0 3.157 1.455v-2a2.159 2.159 0 0 1-2.157-2.156h-2a2.158 2.158 0 0 1-2.156 2.156 2.159 2.159 0 0 1-2.157-2.156h-2a2.159 2.159 0 0 1-2.155 2.156 2.16 2.16 0 0 1-2.158-2.156h-2a2.158 2.158 0 0 1-2.156 2.156v2a4.146 4.146 0 0 0 3.156-1.455 4.152 4.152 0 0 0 3.158 1.455ZM23 20h1v-1h-1v1ZM21 21v-3a1 1 0 0 1 1-1h3a1 1 0 0 1 1 1v3a1 1 0 0 1-1 1h-3a1 1 0 0 1-1-1Zm8-5h1v-1h-1v1Zm-2 1v-3a1 1 0 0 1 1-1h3a1 1 0 0 1 1 1v3a1 1 0 0 1-1 1h-3a1 1 0 0 1-1-1Zm3 6h1v-1h-1v1Zm2-3a1 1 0 0 1 1 1v3a1 1 0 0 1-1 1h-3a1 1 0 0 1-1-1v-3a1 1 0 0 1 1-1h3Zm-3.812 8.075c-1.015 0-4.791-.039-7.642-.562l6.299 9.952c.102.16.156.345.156.535v1.261a4.178 4.178 0 0 0 2 .013V38c0-.189.053-.374.154-.535l6.562-9.935c-2.201.39-5.101.545-7.53.545Zm-11.122-2.508a1.614 1.614 0 0 1-.016-.183c0-.615 0-2.486 9.93-2.68l.04 2c-3.198.062-5.562.367-6.91.68 1.472.343 4.2.691 8.078.691 3.735 0 6.525-.336 8.059-.692a20.349 20.349 0 0 0-2.2-.372l.243-1.985c3.576.436 5.035 1.12 5.035 2.358 0 .264-.095.626-.434.972L31 38.289V40a1 1 0 0 1-.627.927 6.183 6.183 0 0 1-2.33.463c-.777 0-1.57-.151-2.39-.452a1 1 0 0 1-.653-.938v-1.71l-7.676-12.128-.006-.009-.008-.014-.149-.236.015-.01a1.015 1.015 0 0 1-.111-.326ZM27.001 45v-3h-2v2h-2a1 1 0 0 0-.77 1.64l5 6a1.001 1.001 0 0 0 1.538 0l5-6A1 1 0 0 0 33 44h-2v-2h-2v3a1 1 0 0 0 1 1h.865L28 49.438 25.135 46H26a1 1 0 0 0 1-1ZM64 43c0 13.233-10.767 24-24 24S16 56.233 16 43c0-3.658.802-7.169 2.382-10.436l1.8.871A21.784 21.784 0 0 0 18 43c0 12.13 9.87 22 22 22s22-9.87 22-22c0-12.131-9.87-22-22-22-1.286 0-2.573.111-3.827.331l-.345-1.97c1.367-.24 2.77-.361 4.171-.361C53.233 19 64 29.766 64 43Z"/></g></svg>
